X:68
T:The Torn Jacket
R:reel
C:Connie O'Connell
Z:Transcribed by Dave Marshall
M:C|
K:D
|:F3A d2ed|cAAB cde2|F3A dfed|cAGE EDDE|
F3A d2ed|cAAB cdec|Adde fded|cAGE EDDE:|
|:FAdf a3f|g3f gfed|cA (3AAA cdef|gfed cAGA|
FAdf a3f|g3f gfef|gaba gfed|cAGE EDD2:|
